app/assets/images/Contenido/Agregar.svg

<svg fill="none" height="51" viewBox="0 0 51 51" width="51" xmlns="http://www.w3.org/2000/svg"><path d="m25.5 0c-6.7378.0812893-13.1767 2.79399-17.94134 7.55866-4.76467 4.76464-7.4773707 11.20354-7.55866 17.94134.0812893 6.7378 2.79399 13.1767 7.55866 17.9413 4.76464 4.7647 11.20354 7.4774 17.94134 7.5587 6.7378-.0813 13.1767-2.794 17.9413-7.5587 4.7647-4.7646 7.4774-11.2035 7.5587-17.9413-.0813-6.7378-2.794-13.1767-7.5587-17.94134-4.7646-4.76467-11.2035-7.4773707-17.9413-7.55866zm14.5714 27.3214h-12.75v12.75h-3.6428v-12.75h-12.75v-3.6428h12.75v-12.75h3.6428v12.75h12.75z" fill="#222"/></svg>

<svg width="51" height="51" viewBox="0 0 51 51" fill="none" xmlns="http://www.w3.org/2000/svg">
<path d="M25.5 0C18.7622 0.0812893 12.3233 2.79399 7.55866 7.55866C2.79399 12.3233 0.0812893 18.7622 0 25.5C0.0812893 32.2378 2.79399 38.6767 7.55866 43.4413C12.3233 48.206 18.7622 50.9187 25.5 51C32.2378 50.9187 38.6767 48.206 43.4413 43.4413C48.206 38.6767 50.9187 32.2378 51 25.5C50.9187 18.7622 48.206 12.3233 43.4413 7.55866C38.6767 2.79399 32.2378 0.0812893 25.5 0ZM40.0714 27.3214H27.3214V40.0714H23.6786V27.3214H10.9286V23.6786H23.6786V10.9286H27.3214V23.6786H40.0714V27.3214Z" fill="#222222"/>
</svg>
